X:1
T:Diligam te, Domine 3v
T:Orlando di Lasso
T:Source : Magnum opus musicum---München---N.Henricus---1604. Editor : André Vierendeels (11/04/15).
T:Notes : Original clefs : C1, C4, F4 Editorial accidentals above the staff Original note values have been halved Square bracket indicates ligature Music collected by Ferdinando and Rodolpho di Lasso
T:Diligam te, Domine 3v
C:Orlando di Lasso
%%score [ 1 2 3 ]
L:1/8
Q:1/4=90
M:2/2
K:C
V:1 treble nm="Superius" snm="S"
V:2 treble-8 nm="Tenor" snm="T"
V:3 bass nm="Bassus" snm="B"
V:1
 E6 F2 | GA BG c4 | B2 G3 G A2 | z4 E4- | E2 F2 GA BG | c4 B2 G2- | G2 A2 D2 G2- | G2 A2 E2 D2 | %8
w: Di- li-|gam _ _ _ _|te, Do- mi- ne,|di-|* li- gam _ _ _|_ te, Do-|* mi- ne, di-|* li- gam te,|
 A2 G2 d4 | z2 B2 c2 A2- | A2 G2 E4 | B4 z2 E2 | F2 A4 F2 | D4 G2 E2 | G2 A4 G2 | E3 F GE F2- | %16
w: Do- mi- ne,|for- ti- tu-|* do me-|a, for-|ti- tu- do|me- a, for-|ti- tu- do|me- * * * *|
 FE A3 G/F/ G2 | A8- | A4 z2 e2- | e2 e2 e3 d/c/ | B2 E2 G2 EF | GA B2 e2 d2 | B4 z4 | d4 c4 | %24
w: |a,|_ Do-|* mi- ne _ _|_ fir- ma- men- *|* * * tum me-|um,|et re-|
 B3 A/G/ A2 A2 | G4 z2 D2 | E2 F4 E2 | A3 G FD E2 | D4 C2 c2- | c2 _B2 A3 G/F/ | G2 G2 FG AB | %31
w: fu- * * * gi-|um, et|re- fu- *|* * gi- * um|me- um, et|_ re- fu- * *|* gi- um _ _ _|
 c2 CD EF GA- | AG/F/ G2 A4- | A4 z4 | z8 | B4 c2 c2 | c4 B2 A2- | AG G3 F/E/ F2 | G2 c2 B2 c2 | %39
w: _ me- * * * * *|* * * * um,|_||et li- be-|ra- tor me-||us, et li- be-|
 F2 D2 EF GA | Bc dB c4 | c4 z4 | z4 B4 | c2 c2 c4 | B4 A4 | G2 G2 A2 A2 | A4 G4 | F4 E2 E2- | %48
w: ra- tor me- * * *||us,|et|li- be- ra-|tor me-|us, et li- be-|ra- tor|me- us, et|
 E2 C3 B, CD | E2 e3 d/c/ d2 | (3G3 A B2 c2 C2- | CB, CB, B3 ^G- | G8 |] %53
w: _ li- * * *|* be- * * *|ra- * * tor me-|* * * * * us.|_|
V:2
 z8 | E6 F2 | GA BG c4 | B2 d4 c2 | A4 z2 E2- | E2 F2 GA BG | c4 B2 E2- | E2 F2 GA BG | c4 B2 G2- | %9
w: |Di- li-|gam _ _ _ _|te, Do- mi-|ne, di-|* li- gam _ _ _|_ te, di-|* li- gam _ _ _|_ te, Do-|
 GG G2 z4 | B4 c2 A2- | A2 ^G2 (3A3 B c2 | c4 z4 | z2 B4 c2 | e2 dc d4 | G3 A BG AB | c4 B4 | %17
w: * mi- ne,|for- ti- tu-|* do me- * *|a,|for- ti-|tu- * * *|do _ _ _ _ _|_ me-|
 A4 z2 c2- | c2 c2 c3 B/A/ | G2 G2 A2 G2- | G2 G2 z2 G2 | C2 G3 A Bc | d2 G4 A2- | AG G3 F/E/ F2 | %24
w: a, Do-|* mi- ne _ _|_ fir- ma- men-|* tum, fir-|ma men- * * *|tum me- *||
 G3 F/E/ D4 | z2 c4 _B2 | A3 G/F/ G2 G2 | F3 G AB A2- | AG G3 F/E/ F2 | G4 F2 f2- | f2 e2 d2 d2 | %31
w: * * * um,|et re-|fu- * * * gi-|um _ _ _ _|_ _ _ _ _ _|me- um, et|_ re- fu- gi-|
 A4 c4 | B4 z2 A2 | c2 c2 c4 | B4 A4 | G4 z2 F2 | fe ed/c/ d3 d | c2 B2 A4 | G8 | z8 | G4 A2 A2 | %41
w: um me-|um, et|li- be- ra-|tor me-|us, et|li- * * * * * be-|ra- tor me-|us,||et li- be-|
 A4 G4 | F4 E4 | z2 E2 F2 E2 | G2 DE FG AB | cB c3 A d2 | c2 BA cB c2- | cB/A/ B2 c2 G2 | %48
w: ra- tor|me- us,|et li- be-|ra- tor _ _ _ _ _|_ _ me- * *||* * * * us et-|
 A2 A2 A4 | G4 F4 | E8- | E8- | E8 |] %53
w: li- be- ra-|tor me-|us.|_||
V:3
 z8 | z8 | E,6 F,2 | G,E, F,G, A,4 | z2 D,2 C,2 G,,2 | A,,4 z2 E,2- | E,2 F,2 G,A, B,G, | %7
w: ||Di- li-|gam _ _ _ _|te, Do- mi-|ne, di-|* li- gam _ _ _|
 C4 C,2 G,2 | F,2 E,2 z2 B,,2 | C,2 E,4 F,2 | D,2 E,2 z4 | E,4 F,2 A,2- | A,2 F,2 D,4 | %13
w: _ te ,Do-|mi- ne, for-|ti- tu- do|me- a,|for- ti- tu-|* do me-|
 G,3 F, E,D, C,2 | z4 z2 B,,2 | C,2 E,4 D,2 | A,4 E,4 | z2 F,4 F,2 | F,3 E,/D,/ C,4- | C,4 z2 C,2 | %20
w: * * * * a,|for-|ti- tu- do|me- a,|Do- mi-|ne _ _ _|_ fir-|
 E,2 C,3 B,, C,D, | E,3 D, C,2 G,2- | G,F, E,D, C,4 | B,,4 A,,4 | G,,2 G,4 F,2 | %25
w: ma- men- * * *|tum _ _ _|_ _ _ _ _|me- *|um, et re-|
 E,3 D,/C,/ D,2 D,2 | C,8 | z2 D,4 C,2 | B,,3 A,,/G,,/ A,,2 A,,2 | G,,4 D,4 | C,4 z4 | z8 | %32
w: fu- * * * gi-|um,|et re-|fu- * * * gi-|um me-|um,||
 E,4 F,2 F,2 | F,4 E,2 A,2- | A,G, G,3 F,/E,/ F,2 | G,2 E,2 A,2 A,2 | A,4 G,2 F,2- | %37
w: et li- be-|ra- tor me-||us, et li- be-|ra- tor me-|
 F,E, G,2 D,2 D,2 | E,2 E,2 E,4 | D,4 C,4 | B,,4 z2 A,,2 | F,,G,, A,,B,, C,D, E,C, | %42
w: * * * us, et|li- be- ra-|tor me-|us, et|li- * * * * * * *|
 D,A,, A,3 G,/F,/ G,2 | A,2 A,,3 A,, A,,2 | G,,4 z4 | z2 E,2 F,2 F,2 | F,4 E,4 | D,4 C,4 | %48
w: be- * ra- * * *|tor,- li- be- ra-|tor,|et li- be-|ra- tor|me- us,|
 z2 A,,2 F,,G,, A,,B,, | C,3 G,, A,,2 B,,2 | C,2 G,,2 A,,4 | E,,8- | E,,8 |] %53
w: et li- * * *|* be- ra- tot|me- * *|us.|_|

